src/images/googlecloud-icon.svg

<?xml version="1.0" encoding="UTF-8"?>
<!-- Uploaded to: SVG Repo, www.svgrepo.com, Generator: SVG Repo Mixer Tools -->
<svg width="800px" height="800px" viewBox="0 -25 256 256" version="1.1" xmlns="http://www.w3.org/2000/svg" xmlns:xlink="http://www.w3.org/1999/xlink" preserveAspectRatio="xMidYMid">
		<g>
				<path d="M170.2517,56.8186 L192.5047,34.5656 L193.9877,25.1956 C153.4367,-11.6774 88.9757,-7.4964 52.4207,33.9196 C42.2667,45.4226 34.7337,59.7636 30.7167,74.5726 L38.6867,73.4496 L83.1917,66.1106 L86.6277,62.5966 C106.4247,40.8546 139.8977,37.9296 162.7557,56.4286 L170.2517,56.8186 Z" fill="#EA4335">

</path>
				<path d="M224.2048,73.9182 C219.0898,55.0822 208.5888,38.1492 193.9878,25.1962 L162.7558,56.4282 C175.9438,67.2042 183.4568,83.4382 183.1348,100.4652 L183.1348,106.0092 C198.4858,106.0092 210.9318,118.4542 210.9318,133.8052 C210.9318,149.1572 198.4858,161.2902 183.1348,161.2902 L127.4638,161.2902 L121.9978,167.2242 L121.9978,200.5642 L127.4638,205.7952 L183.1348,205.7952 C223.0648,206.1062 255.6868,174.3012 255.9978,134.3712 C256.1858,110.1682 244.2528,87.4782 224.2048,73.9182" fill="#4285F4">

</path>
				<path d="M71.8704,205.7957 L127.4634,205.7957 L127.4634,161.2897 L71.8704,161.2897 C67.9094,161.2887 64.0734,160.4377 60.4714,158.7917 L52.5844,161.2117 L30.1754,183.4647 L28.2234,191.0387 C40.7904,200.5277 56.1234,205.8637 71.8704,205.7957" fill="#34A853">

</path>
				<path d="M71.8704,61.4255 C31.9394,61.6635 -0.2366,94.2275 0.0014,134.1575 C0.1344,156.4555 10.5484,177.4455 28.2234,191.0385 L60.4714,158.7915 C46.4804,152.4705 40.2634,136.0055 46.5844,122.0155 C52.9044,108.0255 69.3704,101.8085 83.3594,108.1285 C89.5244,110.9135 94.4614,115.8515 97.2464,122.0155 L129.4944,89.7685 C115.7734,71.8315 94.4534,61.3445 71.8704,61.4255" fill="#FBBC05">

</path>
		</g>
</svg>

<svg width="800" height="800" viewBox="0 -25 256 256" xmlns="http://www.w3.org/2000/svg" preserveAspectRatio="xMidYMid"><path d="m170.252 56.819 22.253-22.253 1.483-9.37C153.437-11.677 88.976-7.496 52.42 33.92 42.267 45.423 34.734 59.764 30.717 74.573l7.97-1.123 44.505-7.34 3.436-3.513c19.797-21.742 53.27-24.667 76.128-6.168l7.496.39Z" fill="#EA4335"/><path d="M224.205 73.918a100.249 100.249 0 0 0-30.217-48.722l-31.232 31.232a55.515 55.515 0 0 1 20.379 44.037v5.544c15.35 0 27.797 12.445 27.797 27.796 0 15.352-12.446 27.485-27.797 27.485h-55.671l-5.466 5.934v33.34l5.466 5.231h55.67c39.93.311 72.553-31.494 72.864-71.424a72.303 72.303 0 0 0-31.793-60.453" fill="#4285F4"/><path d="M71.87 205.796h55.593V161.29H71.87a27.275 27.275 0 0 1-11.399-2.498l-7.887 2.42-22.409 22.253-1.952 7.574c12.567 9.489 27.9 14.825 43.647 14.757" fill="#34A853"/><path d="M71.87 61.425C31.94 61.664-.237 94.228.001 134.159a72.301 72.301 0 0 0 28.222 56.88l32.248-32.246c-13.99-6.322-20.208-22.786-13.887-36.776 6.32-13.99 22.786-20.208 36.775-13.888a27.796 27.796 0 0 1 13.887 13.888l32.248-32.248A72.224 72.224 0 0 0 71.87 61.425" fill="#FBBC05"/></svg>
